64x64/apps/com.github.aleksandar-stefanovic.urmsimulator.svg

<svg height="64" width="64" xmlns="http://www.w3.org/2000/svg"><rect height="56" opacity=".2" rx="2.8" width="56" x="4" y="5"/><rect fill="#bc5ae7" height="56" rx="2.8" width="56" x="4" y="4"/><g fill="none" stroke-linecap="round" stroke-width="4"><path d="m20 24.976v11.798c0 3.165-2.003 4.252-4 4.2-1.872.008-4-.995-4-4.2v-11.798" opacity=".2" stroke="#000" stroke-linejoin="bevel"/><path d="m20 24v11.798c0 3.164-2.003 4.252-4 4.2-1.872.008-4-.996-4-4.2v-11.798" stroke="#f4f4f7" stroke-linejoin="bevel"/><path d="m34 40.976-4-6m-3.8-2s7.8 1.149 7.8-4c0-5.148-7.972-3.827-7.972-3.827m0 15.799v-15.8" opacity=".2" stroke="#000"/><path d="m34 40-4-6m-3.8-2s7.8 1.149 7.8-4-7.972-3.828-7.972-3.828m0 15.8v-15.8" stroke="#f4f4f7"/><path d="m52 40.948v-15.972m-12 0 6 8 6-8m-12 15.972v-15.972" opacity=".2" stroke="#000" stroke-linejoin="round"/><path d="m52 39.972v-15.972m-12 0 6 8 6-8m-12 15.972v-15.972" stroke="#f4f4f7" stroke-linejoin="round"/></g><path d="m6.8 4c-1.55 0-2.8 1.25-2.8 2.8v1c0-1.55 1.25-2.8 2.8-2.8h50.4c1.55 0 2.8 1.25 2.8 2.8v-1c0-1.55-1.25-2.8-2.8-2.8z" fill="#f4f4f7" opacity=".2"/></svg>

<svg height="64" width="64" xmlns="http://www.w3.org/2000/svg">
    <rect height="56" opacity=".2" rx="2.8" width="56" x="4" y="5"/>
    <rect fill="#bc5ae7" height="56" rx="2.8" width="56" x="4" y="4"/>
    <g fill="none" stroke-linecap="round" stroke-width="4">
        <path d="M20 24.976v11.798c0 3.165-2.003 4.252-4 4.2-1.872.008-4-.995-4-4.2V24.976" opacity=".2" stroke="#000" stroke-linejoin="bevel"/>
        <path d="M20 24v11.798c0 3.164-2.003 4.252-4 4.2-1.872.008-4-.996-4-4.2V24" stroke="#f4f4f7" stroke-linejoin="bevel"/>
        <path d="m34 40.976-4-6m-3.8-2s7.8 1.149 7.8-4c0-5.148-7.972-3.827-7.972-3.827m0 15.799v-15.8" opacity=".2" stroke="#000"/>
        <path d="m34 40-4-6m-3.8-2s7.8 1.149 7.8-4-7.972-3.828-7.972-3.828m0 15.8v-15.8" stroke="#f4f4f7"/>
        <g stroke-linejoin="round">
            <path d="M52 40.948V24.976m-12 0 6 8 6-8M40 40.948V24.976" opacity=".2" stroke="#000"/>
            <path d="M52 39.972V24m-12 0 6 8 6-8M40 39.972V24" stroke="#f4f4f7"/>
        </g>
    </g>
    <path d="M6.8 4C5.25 4 4 5.25 4 6.8v1C4 6.25 5.25 5 6.8 5h50.4C58.75 5 60 6.25 60 7.8v-1C60 5.25 58.75 4 57.2 4z" fill="#f4f4f7" opacity=".2"/>
</svg>
